Yaru++/emotes/16/face-in-love.svg

<svg height="16" width="16" xmlns="http://www.w3.org/2000/svg"><g stroke-width="1.142857"><path d="m8 0c-4.418281 0-7.99999653 3.5817221-7.99999653 8 0 4.418278 3.58171553 8 7.99999653 8s7.999997-3.581722 7.999997-8c0-4.4182779-3.581716-8-7.999997-8zm-5.7142857 9.1782857c2.2857143 1.4902853 9.1279997 1.4902853 11.4639997 0l-.03429.6068572c-.042281.4914281-1.142853 3.8582861-5.7142811 3.8937141-4.5714286.035429-5.7142858-3.177143-5.7142858-3.7862856z" fill="#fdc92b"/><path d="m8 0c-4.5526383.00330686-8.18477007 3.7998896-7.9866071 8.3482143.12073743-4.3256732 3.6592528-7.77122592 7.9866071-7.77678573 4.280605.00310942 7.800287 3.37523683 7.986607 7.65178573.125609-4.499927-3.484931-8.21743067-7.986607-8.2232143zm-5.7142857 9.75.00223.714286c0 .609143 1.1428571 3.821143 5.7142857 3.785714 4.571429-.03543 5.672-3.401429 5.714286-3.892857l.033484-.607143c-.01.00638-.02332.011534-.03348.017857v.017857c-.04229.491429-1.142859 3.857429-5.7142879 3.892857-4.5714286.035429-5.7142857-3.176571-5.7142857-3.7857139v-.1428571c-.000513-.0003341-.00172.0003343-.00223 0z" fill="#fff" opacity=".3"/><path d="m15.986607 7.6517857c-.120738 4.3256733-3.659253 7.7712253-7.986607 7.7767853-4.2806045-.003109-7.800287-3.375237-7.9866071-7.6517853-.12560863 4.4999273 3.484931 8.2174303 7.9866071 8.2232143 4.552638-.0033 8.18477-3.79989 7.986607-8.3482143zm-13.7008927.9553572.0022321.5714285c2.2774549 1.4829086 9.0648636 1.4887346 11.4285716.0178572l.033482-.5892857c-2.336 1.4902861-9.1785714 1.4902861-11.4642857 0z" opacity=".2"/></g><g fill="#ea5756" stroke-width=".666665" transform="matrix(3.7795275 0 0 3.7795275 -26.322033 -1102.0282)"><path d="m8.4678036 293.56699c-.010814-.008-.04707-.0317-.1048073-.0656-.1211461-.0713-.1885576-.11851-.2501925-.17528-.090135-.083-.142778-.16955-.1605517-.26386-.00488-.0256-.00658-.08-.00326-.1036.012703-.0905.063709-.16801.1429915-.21733.073623-.0457.1689776-.0611.2413742-.0383.036125.0116.080787.0365.1220713.0687l.020847.0161.020849-.0161c.055122-.0429.1085562-.0691.1578777-.0772.018381-.004.070348-.002.092292.004.099015.0191.1815389.0794.2253696.16382.022701.044.032942.0867.032942.13817 0 .07-.017033.13613-.050941.19776-.026055.0477-.05531.0839-.1044788.13057-.06635.0631-.1298651.10603-.2669846.18072-.049478.0271-.083062.0469-.096236.0566-.0058.007-.010831.008-.011153.008-.0003263 0-.00393-.004-.008-.007z"/><path d="m9.6737234 293.56699c-.010814-.008-.04707-.0317-.1048073-.0656-.1211461-.0713-.1885576-.11851-.2501925-.17528-.090135-.083-.142778-.16955-.1605517-.26386-.00488-.0256-.00658-.08-.00326-.1036.012703-.0905.063709-.16801.1429915-.21733.073623-.0457.1689776-.0611.2413742-.0383.036125.0116.080787.0365.1220713.0687l.020847.0161.020849-.0161c.055122-.0429.1085562-.0691.1578777-.0772.018381-.004.070348-.002.092292.004.099015.0191.1815384.0794.2253694.16382.0227.044.03294.0867.03294.13817 0 .07-.01703.13613-.05094.19776-.02605.0477-.05531.0839-.104479.13057-.06635.0631-.1298647.10603-.2669842.18072-.049478.0271-.083062.0469-.096236.0566-.0058.007-.010831.008-.011153.008-.0003263 0-.00393-.004-.008-.007z"/></g><path d="m4.9550781 4.2128906c-.2298401-.0118878-.4846642.0540505-.6933593.1835938-.2996504.1864063-.4930043.4782652-.5410157.8203125-.012548.0891968-.0047722.2958222.0136719.3925781.0671762.3564472.264801.682393.6054688.9960938.2329507.2145637.4893906.392629.9472656.6621093.2182197.128126.3536594.2178107.3945312.2480469v.0019531c.0153827.0113386.0300168.0253907.03125.0253907.001217 0 .0190944-.0028402.0410156-.0292969.0497915-.0366614.178231-.1124186.3652344-.2148438.5182469-.2822929.7570409-.4431524 1.0078125-.6816406.1858349-.1763905.2960557-.3138572.3945313-.4941406.1281562-.2329323.1933594-.48348.1933594-.7480469 0-.1945323-.039201-.3551852-.125-.5214844-.1656594-.3190677-.4773326-.5469516-.8515626-.6191406-.0829379-.0226772-.2781847-.0307431-.3476562-.015625-.186412.0306142-.3893211.1288739-.5976562.2910156l-.078125.0625-.0800782-.0625c-.1560351-.1217008-.324402-.2159231-.4609375-.2597656-.0684062-.0215433-.1421366-.0331468-.21875-.0371094zm4.5585938 0c-.2298402-.0118878-.4846643.0540505-.6933594.1835938-.2996504.1864063-.4930043.4782652-.5410156.8203125-.0125481.0891968-.0067254.2958222.0117187.3925781.0671762.3564472.2667542.682393.6074219.9960938.2329508.2145637.4874375.392629.9453125.6621093.21822.128126.355613.2178107.396484.2480469v.0019531c.015383.0113386.028064.0253907.029297.0253907.001217 0 .021048-.0028402.042969-.0292969.049791-.0366614.176278-.1124186.363281-.2148438.518247-.2822929.758994-.4431524 1.009766-.6816406.185835-.1763905.296074-.3138572.394531-.4941406.128164-.2329323.19336-.48348.19336-.7480469-.000001-.1945323-.039205-.3551852-.125-.5214844-.165661-.3190677-.477333-.5469516-.851563-.6191406-.082938-.0226772-.280138-.0307431-.349609-.015625-.186412.0306142-.387368.1288739-.595704.2910156l-.080078.0625-.078125-.0625c-.156035-.1217008-.3244017-.2159231-.4609371-.2597656-.0684063-.0215433-.1421366-.0331468-.21875-.0371094z" fill="#f22c42" stroke-width="2.51968" transform="matrix(1.00000000957 0 0 1.00000000957 -.0000012853 .00000325325)"/><path d="m4.9550781 4.2128906c-.2298401-.0118878-.4846642.0540505-.6933593.1835938-.2996505.1864063-.4930043.4782652-.5410157.8203125-.012548.0891968-.0047722.2958222.0136719.3925781.0016396.0086999.0060173.0167268.0078125.0253906.0659969-.305465.2449007-.5675075.5195313-.7382812.2086949-.1296378.4635187-.1949324.6933593-.1835938.0766148.0037796.1503444.0144322.21875.0371094.136537.0438425.3049035.1380648.4609375.2597656l.0800782.0625.078125-.0625c.2083351-.1621417.4112461-.2607794.5976562-.2910156.0694715-.0151181.2647183-.0070522.3476562.015625.3742303.072189.6859021.3001485.8515626.6191406.0444575.0861107.0752385.1711332.0957031.2597656.0123014-.0787103.0292969-.1568068.0292969-.2382812 0-.1945323-.039201-.3551852-.125-.5214844-.1656595-.3190677-.4773325-.5469516-.8515626-.6191406-.0829379-.0226772-.2781847-.0307431-.3476562-.015625-.186412.0306142-.3893211.1288739-.5976562.2910156l-.078125.0625-.0800782-.0625c-.1560351-.1217008-.324402-.2159231-.4609375-.2597656-.0684062-.0215433-.1421366-.0331468-.21875-.0371094zm4.5585938 0c-.2298402-.0118878-.4846643.0540505-.6933594.1835938-.2996504.1864063-.4930043.4782652-.5410156.8203125-.0125481.0891968-.0067254.2958222.0117187.3925781.0018677.00991.00574.0194337.0078125.0292969.0651997-.3072879.245595-.570631.5214844-.7421875.2086953-.1296378.4635187-.1949324.6933594-.1835938.0766148.0037796.1503443.0144322.21875.0371094.1365365.0438425.3049031.1380648.4609371.2597656l.078125.0625.080078-.0625c.208337-.1621417.409294-.2607794.595704-.2910156.069471-.0151181.266671-.0070522.349609.015625.37423.072189.685906.3001485.851563.6191406.044455.0861107.075241.1711332.095703.2597656.0123-.0787103.029297-.1568068.029297-.2382812-.000002-.1945323-.039205-.3551852-.125-.5214844-.165662-.3190677-.477333-.5469516-.851563-.6191406-.082938-.0226772-.280138-.0307431-.349609-.015625-.186412.0306142-.387367.1288739-.595704.2910156l-.080078.0625-.078125-.0625c-.156035-.1217008-.3244017-.2159231-.4609371-.2597656-.0684063-.0215433-.1421366-.0331468-.21875-.0371094z" fill="#fff" opacity=".3" stroke-width="2.51968" transform="matrix(1.00000000957 0 0 1.00000000957 -.0000012853 .00000325325)"/><path d="m7.6855469 5.1132812c-.0276447.1769173-.0753725.3486443-.1640625.5097657-.0984771.1804346-.2086957.3176367-.3945313.4941406-.2507716.2384882-.4895656.3993099-1.0078125.6816406-.1870034.1024252-.3154429.1770485-.3652344.2148438-.0219288.0274015-.0397986.03125-.0410156.03125-.0012472 0-.0158673-.0160052-.03125-.0273438v-.0019531c-.0408729-.0302362-.1763126-.1199209-.3945312-.2480469-.457875-.2694803-.7143145-.4474322-.9472656-.6621093-.332353-.3060443-.525899-.6244311-.5976563-.9707032-.0060121.0278261-.0174758.0534734-.0214844.0820313-.012548.0891968-.0047722.2958222.0136719.3925781.0671762.3564472.2648009.6823929.6054688.9960938.2329507.2145637.4893906.392629.9472656.6621093.2182197.128126.3536594.2178107.3945312.2480469v.0019531c.0153827.0113386.0300168.0253907.03125.0253907.001217 0 .0190944-.0028402.0410156-.0292969.0497916-.0366614.178231-.1124186.3652344-.2148438.5182469-.2822929.7570409-.4431524 1.0078125-.6816406.1858349-.1763905.2960557-.3138572.3945313-.4941406.1281562-.2329323.1933594-.48348.1933594-.7480469 0-.0937336-.0102668-.179295-.0292969-.2617188zm4.5585941 0c-.027643.1769173-.075368.3486443-.164063.5097657-.098445.1804346-.208692.3176367-.394531.4941406-.250771.2384882-.491519.3993099-1.009766.6816406-.187003.1024252-.31349.1770485-.363281.2148438-.021917.0274015-.041752.03125-.042969.03125-.001209 0-.013914-.0160052-.029297-.0273438v-.0019531c-.040871-.0302362-.178265-.1199209-.396484-.2480469-.457875-.2694803-.7123613-.4474322-.9453125-.6621093-.3311954-.3049793-.5271359-.6219275-.5996094-.9667969-.0056148.0264623-.0157244.0510041-.0195312.078125-.0125481.0891968-.0067254.2958222.0117187.3925781.0671762.3564472.2667542.6823929.6074219.9960938.2329508.2145637.4874375.392629.9453125.6621093.21822.128126.355613.2178107.396484.2480469v.0019531c.015383.0113386.028064.0253907.029297.0253907.001217 0 .021048-.0028402.042969-.0292969.049791-.0366614.176278-.1124186.363281-.2148438.518247-.2822929.758994-.4431524 1.009766-.6816406.185835-.1763905.296074-.3138572.394531-.4941406.128164-.2329323.193359-.48348.19336-.7480469-.000001-.0937336-.010267-.179295-.029297-.2617188z" opacity=".2" stroke-width="2.51968" transform="matrix(1.00000000957 0 0 1.00000000957 -.0000012853 .00000325325)"/></svg>

<?xml version="1.0" encoding="UTF-8" standalone="no"?>
<svg
   xmlns:dc="http://purl.org/dc/elements/1.1/"
   xmlns:cc="http://creativecommons.org/ns#"
   xmlns:rdf="http://www.w3.org/1999/02/22-rdf-syntax-ns#"
   xmlns:svg="http://www.w3.org/2000/svg"
   xmlns="http://www.w3.org/2000/svg"
   xmlns:sodipodi="http://sodipodi.sourceforge.net/DTD/sodipodi-0.dtd"
   xmlns:inkscape="http://www.inkscape.org/namespaces/inkscape"
   width="16"
   height="16"
   version="1.1"
   id="svg4"
   sodipodi:docname="face-in-love.svg"
   inkscape:version="0.92.4 (5da689c313, 2019-01-14)">
  <metadata
     id="metadata10">
    <rdf:RDF>
      <cc:Work
         rdf:about="">
        <dc:format>image/svg+xml</dc:format>
        <dc:type
           rdf:resource="http://purl.org/dc/dcmitype/StillImage" />
        <dc:title />
      </cc:Work>
    </rdf:RDF>
  </metadata>
  <defs
     id="defs8" />
  <sodipodi:namedview
     pagecolor="#ffffff"
     bordercolor="#666666"
     borderopacity="1"
     objecttolerance="10"
     gridtolerance="10"
     guidetolerance="10"
     inkscape:pageopacity="0"
     inkscape:pageshadow="2"
     inkscape:window-width="1920"
     inkscape:window-height="1016"
     id="namedview6"
     showgrid="false"
     inkscape:zoom="52.4375"
     inkscape:cx="-12.174221"
     inkscape:cy="9.3296525"
     inkscape:window-x="0"
     inkscape:window-y="27"
     inkscape:window-maximized="1"
     inkscape:current-layer="g837" />
  <path
     d="M 8,0 C 3.581719,0 3.4729399e-6,3.5817221 3.4729399e-6,8 3.4729399e-6,12.418278 3.581719,16 8,16 12.418281,16 15.999997,12.418278 15.999997,8 15.999997,3.5817221 12.418281,0 8,0 Z M 2.2857143,9.1782857 c 2.2857143,1.4902853 9.1279997,1.4902853 11.4639997,0 l -0.03429,0.6068572 C 13.673143,10.276571 12.572571,13.643429 8.0011429,13.678857 3.4297143,13.714286 2.2868571,10.501714 2.2868571,9.8925714 Z"
     id="path2"
     style="fill:#fdc92b;fill-opacity:1;stroke-width:1.14285719"
     inkscape:connector-curvature="0"
     sodipodi:nodetypes="ssssscccscc" />
  <path
     style="opacity:0.3;fill:#ffffff;fill-opacity:1;stroke-width:1.14285719"
     d="M 8,0 C 3.4473617,0.00330686 -0.18477007,3.7998896 0.0133929,8.3482143 0.13413033,4.0225411 3.6726457,0.57698838 8,0.57142857 12.280605,0.57453799 15.800287,3.9466654 15.986607,8.2232143 16.112216,3.7232873 12.501676,0.00578363 8,0 Z m -5.7142857,9.75 0.00223,0.714286 c 0,0.609143 1.1428571,3.821143 5.7142857,3.785714 4.571429,-0.03543 5.672,-3.401429 5.714286,-3.892857 L 13.75,9.75 C 13.74,9.75638 13.72668,9.761534 13.71652,9.767857 V 9.785714 C 13.67423,10.277143 12.573661,13.643143 8.0022321,13.678571 3.4308035,13.714 2.2879464,10.502 2.2879464,9.8928571 V 9.75 c -5.13e-4,-3.341e-4 -0.00172,3.343e-4 -0.00223,0 z"
     id="path829"
     inkscape:connector-curvature="0"
     sodipodi:nodetypes="cccccccsccccssccc" />
  <path
     style="opacity:0.2;fill:#000000;fill-opacity:1;stroke-width:1.14285719"
     d="M 15.986607,7.6517857 C 15.865869,11.977459 12.327354,15.423011 8,15.428571 3.7193955,15.425462 0.199713,12.053334 0.0133929,7.7767857 -0.11221573,12.276713 3.4983239,15.994216 8,16 c 4.552638,-0.0033 8.18477,-3.79989 7.986607,-8.3482143 z M 2.2857143,8.6071429 2.2879464,9.1785714 C 4.5654013,10.66148 11.35281,10.667306 13.716518,9.1964286 L 13.75,8.6071429 c -2.336,1.4902861 -9.1785714,1.4902861 -11.4642857,0 z"
     id="path834"
     inkscape:connector-curvature="0"
     sodipodi:nodetypes="cccccccccc" />
  <g
     transform="matrix(3.7795275,0,0,3.7795275,-26.322033,-1102.0282)"
     id="layer1"
     inkscape:label="Capa 1">
    <path
       d="m 8.4678036,293.56699 c -0.010814,-0.008 -0.04707,-0.0317 -0.1048073,-0.0656 -0.1211461,-0.0713 -0.1885576,-0.11851 -0.2501925,-0.17528 -0.090135,-0.083 -0.142778,-0.16955 -0.1605517,-0.26386 -0.00488,-0.0256 -0.00658,-0.08 -0.00326,-0.1036 0.012703,-0.0905 0.063709,-0.16801 0.1429915,-0.21733 0.073623,-0.0457 0.1689776,-0.0611 0.2413742,-0.0383 0.036125,0.0116 0.080787,0.0365 0.1220713,0.0687 l 0.020847,0.0161 0.020849,-0.0161 c 0.055122,-0.0429 0.1085562,-0.0691 0.1578777,-0.0772 0.018381,-0.004 0.070348,-0.002 0.092292,0.004 0.099015,0.0191 0.1815389,0.0794 0.2253696,0.16382 0.022701,0.044 0.032942,0.0867 0.032942,0.13817 0,0.07 -0.017033,0.13613 -0.050941,0.19776 -0.026055,0.0477 -0.05531,0.0839 -0.1044788,0.13057 -0.06635,0.0631 -0.1298651,0.10603 -0.2669846,0.18072 -0.049478,0.0271 -0.083062,0.0469 -0.096236,0.0566 -0.0058,0.007 -0.010831,0.008 -0.011153,0.008 -3.263e-4,0 -0.00393,-0.004 -0.008,-0.007 z"
       id="path4173"
       style="fill:#ea5756;stroke-width:0.6666652"
       inkscape:connector-curvature="0" />
    <path
       inkscape:connector-curvature="0"
       style="fill:#ea5756;stroke-width:0.6666652"
       id="path830"
       d="m 9.6737234,293.56699 c -0.010814,-0.008 -0.04707,-0.0317 -0.1048073,-0.0656 -0.1211461,-0.0713 -0.1885576,-0.11851 -0.2501925,-0.17528 -0.090135,-0.083 -0.142778,-0.16955 -0.1605517,-0.26386 -0.00488,-0.0256 -0.00658,-0.08 -0.00326,-0.1036 0.012703,-0.0905 0.063709,-0.16801 0.1429915,-0.21733 0.073623,-0.0457 0.1689776,-0.0611 0.2413742,-0.0383 0.036125,0.0116 0.080787,0.0365 0.1220713,0.0687 l 0.020847,0.0161 0.020849,-0.0161 c 0.055122,-0.0429 0.1085562,-0.0691 0.1578777,-0.0772 0.018381,-0.004 0.070348,-0.002 0.092292,0.004 0.099015,0.0191 0.1815384,0.0794 0.2253694,0.16382 0.0227,0.044 0.03294,0.0867 0.03294,0.13817 0,0.07 -0.01703,0.13613 -0.05094,0.19776 -0.02605,0.0477 -0.05531,0.0839 -0.104479,0.13057 -0.06635,0.0631 -0.1298647,0.10603 -0.2669842,0.18072 -0.049478,0.0271 -0.083062,0.0469 -0.096236,0.0566 -0.0058,0.007 -0.010831,0.008 -0.011153,0.008 -3.263e-4,0 -0.00393,-0.004 -0.008,-0.007 z" />
  </g>
  <g
     inkscape:label="Capa 1"
     id="g837"
     transform="matrix(3.7795275,0,0,3.7795275,-26.322033,-1102.0282)">
    <path
       style="fill:#f22c42;stroke-width:2.51967955;fill-opacity:1"
       d="M 4.9550781 4.2128906 C 4.725238 4.2010028 4.4704139 4.2669411 4.2617188 4.3964844 C 3.9620684 4.5828907 3.7687145 4.8747496 3.7207031 5.2167969 C 3.7081551 5.3059937 3.7159309 5.5126191 3.734375 5.609375 C 3.8015512 5.9658222 3.999176 6.291768 4.3398438 6.6054688 C 4.5727945 6.8200325 4.8292344 6.9980978 5.2871094 7.2675781 C 5.5053291 7.3957041 5.6407688 7.4853888 5.6816406 7.515625 L 5.6816406 7.5175781 C 5.6970233 7.5289167 5.7116574 7.5429688 5.7128906 7.5429688 C 5.7141076 7.5429688 5.731985 7.5401286 5.7539062 7.5136719 C 5.8036977 7.4770105 5.9321372 7.4012533 6.1191406 7.2988281 C 6.6373875 7.0165352 6.8761815 6.8556757 7.1269531 6.6171875 C 7.312788 6.440797 7.4230088 6.3033303 7.5214844 6.1230469 C 7.6496406 5.8901146 7.7148438 5.6395669 7.7148438 5.375 C 7.7148438 5.1804677 7.6756428 5.0198148 7.5898438 4.8535156 C 7.4241844 4.5344479 7.1125112 4.306564 6.7382812 4.234375 C 6.6553433 4.2116978 6.4600965 4.2036319 6.390625 4.21875 C 6.204213 4.2493642 6.0013039 4.3476239 5.7929688 4.5097656 L 5.7148438 4.5722656 L 5.6347656 4.5097656 C 5.4787305 4.3880648 5.3103636 4.2938425 5.1738281 4.25 C 5.1054219 4.2284567 5.0316915 4.2168532 4.9550781 4.2128906 z M 9.5136719 4.2128906 C 9.2838317 4.2010028 9.0290076 4.2669411 8.8203125 4.3964844 C 8.5206621 4.5828907 8.3273082 4.8747496 8.2792969 5.2167969 C 8.2667488 5.3059937 8.2725715 5.5126191 8.2910156 5.609375 C 8.3581918 5.9658222 8.5577698 6.291768 8.8984375 6.6054688 C 9.1313883 6.8200325 9.385875 6.9980978 9.84375 7.2675781 C 10.06197 7.3957041 10.199363 7.4853888 10.240234 7.515625 L 10.240234 7.5175781 C 10.255617 7.5289167 10.268298 7.5429688 10.269531 7.5429688 C 10.270748 7.5429688 10.290579 7.5401286 10.3125 7.5136719 C 10.362291 7.4770105 10.488778 7.4012533 10.675781 7.2988281 C 11.194028 7.0165352 11.434775 6.8556757 11.685547 6.6171875 C 11.871382 6.440797 11.981621 6.3033303 12.080078 6.1230469 C 12.208242 5.8901146 12.273438 5.6395669 12.273438 5.375 C 12.273437 5.1804677 12.234233 5.0198148 12.148438 4.8535156 C 11.982777 4.5344479 11.671105 4.306564 11.296875 4.234375 C 11.213937 4.2116978 11.016737 4.2036319 10.947266 4.21875 C 10.760854 4.2493642 10.559898 4.3476239 10.351562 4.5097656 L 10.271484 4.5722656 L 10.193359 4.5097656 C 10.037324 4.3880648 9.8689573 4.2938425 9.7324219 4.25 C 9.6640156 4.2284567 9.5902853 4.2168532 9.5136719 4.2128906 z "
       transform="matrix(0.26458334,0,0,0.26458334,6.9643713,291.5783)"
       id="path832" />
    <path
       style="fill:#ffffff;stroke-width:2.51967955;fill-opacity:1;opacity:0.3"
       d="M 4.9550781 4.2128906 C 4.725238 4.2010028 4.4704139 4.2669411 4.2617188 4.3964844 C 3.9620683 4.5828907 3.7687145 4.8747496 3.7207031 5.2167969 C 3.7081551 5.3059937 3.7159309 5.5126191 3.734375 5.609375 C 3.7360146 5.6180749 3.7403923 5.6261018 3.7421875 5.6347656 C 3.8081844 5.3293006 3.9870882 5.0672581 4.2617188 4.8964844 C 4.4704137 4.7668466 4.7252375 4.701552 4.9550781 4.7128906 C 5.0316929 4.7166702 5.1054225 4.7273228 5.1738281 4.75 C 5.3103651 4.7938425 5.4787316 4.8880648 5.6347656 5.0097656 L 5.7148438 5.0722656 L 5.7929688 5.0097656 C 6.0013039 4.8476239 6.2042149 4.7489862 6.390625 4.71875 C 6.4600965 4.7036319 6.6553433 4.7116978 6.7382812 4.734375 C 7.1125115 4.806564 7.4241833 5.0345235 7.5898438 5.3535156 C 7.6343013 5.4396263 7.6650823 5.5246488 7.6855469 5.6132812 C 7.6978483 5.5345709 7.7148438 5.4564744 7.7148438 5.375 C 7.7148438 5.1804677 7.6756428 5.0198148 7.5898438 4.8535156 C 7.4241843 4.5344479 7.1125113 4.306564 6.7382812 4.234375 C 6.6553433 4.2116978 6.4600965 4.2036319 6.390625 4.21875 C 6.204213 4.2493642 6.0013039 4.3476239 5.7929688 4.5097656 L 5.7148438 4.5722656 L 5.6347656 4.5097656 C 5.4787305 4.3880648 5.3103636 4.2938425 5.1738281 4.25 C 5.1054219 4.2284567 5.0316915 4.2168532 4.9550781 4.2128906 z M 9.5136719 4.2128906 C 9.2838317 4.2010028 9.0290076 4.2669411 8.8203125 4.3964844 C 8.5206621 4.5828907 8.3273082 4.8747496 8.2792969 5.2167969 C 8.2667488 5.3059937 8.2725715 5.5126191 8.2910156 5.609375 C 8.2928833 5.619285 8.2967556 5.6288087 8.2988281 5.6386719 C 8.3640278 5.331384 8.5444231 5.0680409 8.8203125 4.8964844 C 9.0290078 4.7668466 9.2838312 4.701552 9.5136719 4.7128906 C 9.5902867 4.7166702 9.6640162 4.7273228 9.7324219 4.75 C 9.8689584 4.7938425 10.037325 4.8880648 10.193359 5.0097656 L 10.271484 5.0722656 L 10.351562 5.0097656 C 10.559899 4.8476239 10.760856 4.7489862 10.947266 4.71875 C 11.016737 4.7036319 11.213937 4.7116978 11.296875 4.734375 C 11.671105 4.806564 11.982781 5.0345235 12.148438 5.3535156 C 12.192893 5.4396263 12.223679 5.5246488 12.244141 5.6132812 C 12.256441 5.5345709 12.273438 5.4564744 12.273438 5.375 C 12.273436 5.1804677 12.234233 5.0198148 12.148438 4.8535156 C 11.982776 4.5344479 11.671105 4.306564 11.296875 4.234375 C 11.213937 4.2116978 11.016737 4.2036319 10.947266 4.21875 C 10.760854 4.2493642 10.559899 4.3476239 10.351562 4.5097656 L 10.271484 4.5722656 L 10.193359 4.5097656 C 10.037324 4.3880648 9.8689573 4.2938425 9.7324219 4.25 C 9.6640156 4.2284567 9.5902853 4.2168532 9.5136719 4.2128906 z "
       transform="matrix(0.26458334,0,0,0.26458334,6.9643713,291.5783)"
       id="path846" />
    <path
       style="fill:#000000;stroke-width:2.51967955;fill-opacity:1;opacity:0.2"
       d="M 7.6855469 5.1132812 C 7.6579022 5.2901985 7.6101744 5.4619255 7.5214844 5.6230469 C 7.4230073 5.8034815 7.3127887 5.9406836 7.1269531 6.1171875 C 6.8761815 6.3556757 6.6373875 6.5164974 6.1191406 6.7988281 C 5.9321372 6.9012533 5.8036977 6.9758766 5.7539062 7.0136719 C 5.7319774 7.0410734 5.7141076 7.0449219 5.7128906 7.0449219 C 5.7116434 7.0449219 5.6970233 7.0289167 5.6816406 7.0175781 L 5.6816406 7.015625 C 5.6407677 6.9853888 5.505328 6.8957041 5.2871094 6.7675781 C 4.8292344 6.4980978 4.5727949 6.3201459 4.3398438 6.1054688 C 4.0074908 5.7994245 3.8139448 5.4810377 3.7421875 5.1347656 C 3.7361754 5.1625917 3.7247117 5.188239 3.7207031 5.2167969 C 3.7081551 5.3059937 3.7159309 5.5126191 3.734375 5.609375 C 3.8015512 5.9658222 3.9991759 6.2917679 4.3398438 6.6054688 C 4.5727945 6.8200325 4.8292344 6.9980978 5.2871094 7.2675781 C 5.5053291 7.3957041 5.6407688 7.4853888 5.6816406 7.515625 L 5.6816406 7.5175781 C 5.6970233 7.5289167 5.7116574 7.5429688 5.7128906 7.5429688 C 5.7141076 7.5429688 5.731985 7.5401286 5.7539062 7.5136719 C 5.8036978 7.4770105 5.9321372 7.4012533 6.1191406 7.2988281 C 6.6373875 7.0165352 6.8761815 6.8556757 7.1269531 6.6171875 C 7.312788 6.440797 7.4230088 6.3033303 7.5214844 6.1230469 C 7.6496406 5.8901146 7.7148438 5.6395669 7.7148438 5.375 C 7.7148438 5.2812664 7.704577 5.195705 7.6855469 5.1132812 z M 12.244141 5.1132812 C 12.216498 5.2901985 12.168773 5.4619255 12.080078 5.6230469 C 11.981633 5.8034815 11.871386 5.9406836 11.685547 6.1171875 C 11.434776 6.3556757 11.194028 6.5164974 10.675781 6.7988281 C 10.488778 6.9012533 10.362291 6.9758766 10.3125 7.0136719 C 10.290583 7.0410734 10.270748 7.0449219 10.269531 7.0449219 C 10.268322 7.0449219 10.255617 7.0289167 10.240234 7.0175781 L 10.240234 7.015625 C 10.199363 6.9853888 10.061969 6.8957041 9.84375 6.7675781 C 9.385875 6.4980978 9.1313887 6.3201459 8.8984375 6.1054688 C 8.5672421 5.8004895 8.3713016 5.4835413 8.2988281 5.1386719 C 8.2932133 5.1651342 8.2831037 5.189676 8.2792969 5.2167969 C 8.2667488 5.3059937 8.2725715 5.5126191 8.2910156 5.609375 C 8.3581918 5.9658222 8.5577698 6.2917679 8.8984375 6.6054688 C 9.1313883 6.8200325 9.385875 6.9980978 9.84375 7.2675781 C 10.06197 7.3957041 10.199363 7.4853888 10.240234 7.515625 L 10.240234 7.5175781 C 10.255617 7.5289167 10.268298 7.5429688 10.269531 7.5429688 C 10.270748 7.5429688 10.290579 7.5401286 10.3125 7.5136719 C 10.362291 7.4770105 10.488778 7.4012533 10.675781 7.2988281 C 11.194028 7.0165352 11.434775 6.8556757 11.685547 6.6171875 C 11.871382 6.440797 11.981621 6.3033303 12.080078 6.1230469 C 12.208242 5.8901146 12.273437 5.6395669 12.273438 5.375 C 12.273437 5.2812664 12.263171 5.195705 12.244141 5.1132812 z "
       transform="matrix(0.26458334,0,0,0.26458334,6.9643713,291.5783)"
       id="path851" />
  </g>
  <g
     transform="matrix(3.7795275,0,0,3.7795275,-26.322033,-1101.5286)"
     id="g843"
     inkscape:label="Capa 1" />
</svg>
